fonts/piswpi/uni003b.svg

<svg width="500" height="900" xmlns="http://www.w3.org/2000/svg">
   <path d="M 250 325 A 25 25 0 0 0 225 350 A 25 25 0 0 0 250 375 A 25 25 0 0 0 257.38867 373.83008 A 25 25 0 0 0 259.62695 372.80859 A 25 25 0 0 0 264.0918 370.5332 A 25 25 0 0 0 266.30664 368.61328 A 25 25 0 0 0 268.89453 366.37109 A 25 25 0 0 0 270.22461 364.69531 A 25 25 0 0 0 273.77539 357.72852 A 25 25 0 0 0 273.77734 357.7207 A 25 25 0 0 0 275 350 A 25 25 0 0 0 274.02344 343.2168 A 25 25 0 0 0 273.84961 342.6582 A 25 25 0 0 0 271.16211 336.77148 A 25 25 0 0 0 270.89062 336.32227 A 25 25 0 0 0 266.41797 331.16211 A 25 25 0 0 0 266.37109 331.10742 A 25 25 0 0 0 266.2793 331.05273 A 25 25 0 0 0 258.76758 326.59375 A 25 25 0 0 0 258.66992 326.56445 A 25 25 0 0 0 250 325 z M 178.72852 354.29492 A 25 25 0 0 0 175.37891 354.5957 A 25 25 0 0 0 161.61133 361.61133 A 25 25 0 0 0 161.61133 396.9668 A 25 25 0 0 0 196.9668 396.9668 A 25 25 0 0 0 196.9668 361.61133 A 25 25 0 0 0 178.72852 354.29492 z M 320.15039 354.29688 A 25 25 0 0 0 316.80078 354.59766 A 25 25 0 0 0 303.0332 361.61133 A 25 25 0 0 0 298.43555 367.93945 A 25 25 0 0 0 303.0332 396.9668 A 25 25 0 0 0 316.80078 403.98242 A 25 25 0 0 0 324.62109 403.98242 A 25 25 0 0 0 332.06055 401.56445 A 25 25 0 0 0 338.38867 396.9668 A 25 25 0 0 0 338.38867 361.61133 A 25 25 0 0 0 320.15039 354.29688 z M 49.998047 399.99805 A 50 50 0 0 0 0 449.99805 A 50 50 0 0 0 0 450 L -0.001953125 450 A 50 50 0 0 0 4.9511719 471.69336 A 50 50 0 0 0 10.908203 481.17383 A 50 50 0 0 0 49.998047 500 A 50 50 0 0 0 77.347656 491.85742 A 50 50 0 0 0 80.708984 489.45703 A 50 50 0 0 0 80.710938 489.45703 A 50 50 0 0 0 82.15625 488.23242 A 50 50 0 0 0 83.863281 486.78516 A 50 50 0 0 0 100 450 A 50 50 0 0 0 81.173828 410.9082 A 50 50 0 0 0 50.001953 400 L 49.998047 399.99805 z M 450.00195 400 A 50 50 0 0 0 438.875 401.25391 A 50 50 0 0 0 418.82617 410.9082 A 50 50 0 0 0 410.91016 418.82617 A 50 50 0 0 0 402.21289 436.13477 A 50 50 0 0 0 401.25391 438.87305 A 50 50 0 0 0 401.25391 438.875 A 50 50 0 0 0 401.12695 440 A 50 50 0 0 0 400 450 A 50 50 0 0 0 401.25391 461.125 A 50 50 0 0 0 410.91016 481.17383 A 50 50 0 0 0 418.82617 489.08984 A 50 50 0 0 0 418.82617 489.0918 A 50 50 0 0 0 449.99805 500 L 450.00195 500.00195 A 50 50 0 0 0 500 450.00195 A 50 50 0 0 0 500 450 L 500.00195 450 A 50 50 0 0 0 495.04883 428.30664 A 50 50 0 0 0 489.0918 418.82617 A 50 50 0 0 0 461.12695 401.25391 A 50 50 0 0 0 450.00195 400 z M 244.40234 400.31445 A 50 50 0 0 0 241.91016 400.88281 A 50 50 0 0 0 233.48633 402.80664 A 50 50 0 0 0 233.48438 402.80664 A 50 50 0 0 0 223.40039 407.66406 A 50 50 0 0 0 223.39844 407.66406 A 50 50 0 0 0 214.64648 414.64453 A 50 50 0 0 0 214.64453 414.64453 A 50 50 0 0 0 214.64453 414.64648 A 50 50 0 0 0 207.66406 423.39844 A 50 50 0 0 0 207.66406 423.40039 A 50 50 0 0 0 202.80664 433.48438 A 50 50 0 0 0 202.80664 433.48633 A 50 50 0 0 0 200.88281 441.91016 A 50 50 0 0 0 200.31445 444.40039 A 50 50 0 0 0 200.31445 444.40234 A 50 50 0 0 0 200.31445 455.59766 A 50 50 0 0 0 202.80664 466.51367 A 50 50 0 0 0 205.32422 471.74219 A 50 50 0 0 0 207.66406 476.59961 A 50 50 0 0 0 207.66406 476.60156 A 50 50 0 0 0 214.64453 485.35352 A 50 50 0 0 0 214.64648 485.35547 A 50 50 0 0 0 217.68359 488.1543 A 50 50 0 0 0 217.68555 488.1543 A 50 50 0 0 0 220.22266 490.12891 A 50 50 0 0 0 220.94531 490.69141 A 50 50 0 0 0 220.94727 490.69141 A 50 50 0 0 0 222.56641 491.75 A 50 50 0 0 0 223.46094 492.33594 A 50 50 0 0 0 224.4043 492.95312 A 50 50 0 0 0 224.40625 492.95312 A 50 50 0 0 0 228.03906 494.91992 A 50 50 0 0 0 228.04102 494.91992 A 50 50 0 0 0 229.19336 495.42578 A 50 50 0 0 0 238.92969 498.73047 A 50 50 0 0 0 239.73828 498.93555 A 50 50 0 0 0 239.74023 498.93555 A 50 50 0 0 0 240.51172 499.06445 A 50 50 0 0 0 247.93359 499.95703 A 50 50 0 0 0 247.93555 499.95703 A 50 50 0 0 0 252.06445 499.95703 A 50 50 0 0 0 252.06641 499.95703 A 50 50 0 0 0 259.58008 499.04883 A 50 50 0 0 0 260.26172 498.93555 A 50 50 0 0 0 261.07031 498.73047 A 50 50 0 0 0 270.80664 495.42578 A 50 50 0 0 0 271.95898 494.91992 A 50 50 0 0 0 271.96094 494.91992 A 50 50 0 0 0 275.59375 492.95312 A 50 50 0 0 0 275.5957 492.95312 A 50 50 0 0 0 279.05273 490.69336 A 50 50 0 0 0 279.05469 490.69141 A 50 50 0 0 0 279.77734 490.12891 A 50 50 0 0 0 282.31445 488.1543 A 50 50 0 0 0 282.31641 488.1543 A 50 50 0 0 0 285.35352 485.35547 A 50 50 0 0 0 285.35547 485.35547 A 50 50 0 0 0 285.35547 485.35352 A 50 50 0 0 0 292.33594 476.60156 A 50 50 0 0 0 292.33594 476.59961 A 50 50 0 0 0 297.19336 466.51562 A 50 50 0 0 0 297.19336 466.51367 A 50 50 0 0 0 299.22266 457.62695 A 50 50 0 0 0 299.68555 455.59961 A 50 50 0 0 0 299.68555 455.59766 A 50 50 0 0 0 300 450 A 50 50 0 0 0 299.68555 444.40039 A 50 50 0 0 0 299.22266 442.37305 A 50 50 0 0 0 297.19336 433.48633 A 50 50 0 0 0 285.35547 414.64453 A 50 50 0 0 0 276.60156 407.66406 A 50 50 0 0 0 276.59961 407.66406 A 50 50 0 0 0 266.51562 402.80664 A 50 50 0 0 0 258.08984 400.88281 A 50 50 0 0 0 255.59961 400.31445 A 50 50 0 0 0 244.40234 400.31445 z M 150 425 A 25 25 0 0 0 142.61719 426.16797 A 25 25 0 0 0 140.35156 427.20312 A 25 25 0 0 0 135.9082 429.4668 A 25 25 0 0 0 133.68555 431.39453 A 25 25 0 0 0 131.10742 433.62891 A 25 25 0 0 0 130.60547 434.47461 A 25 25 0 0 0 127.72461 439.33008 A 25 25 0 0 0 126.48828 441.75586 A 25 25 0 0 0 125 450 A 25 25 0 0 0 150 475 A 25 25 0 0 0 175 450 A 25 25 0 0 0 174.82031 447.03516 A 25 25 0 0 0 174.79883 446.88477 A 25 25 0 0 0 174.29102 444.11523 A 25 25 0 0 0 174.22656 443.86523 A 25 25 0 0 0 173.41016 441.24805 A 25 25 0 0 0 173.31055 440.99219 A 25 25 0 0 0 172.19727 438.51758 A 25 25 0 0 0 172.05469 438.24609 A 25 25 0 0 0 170.65625 435.93555 A 25 25 0 0 0 170.49219 435.69336 A 25 25 0 0 0 168.8125 433.54883 A 25 25 0 0 0 168.63477 433.34375 A 25 25 0 0 0 166.68164 431.39062 A 25 25 0 0 0 166.51562 431.23828 A 25 25 0 0 0 166.37109 431.10547 A 25 25 0 0 0 166.26758 431.04492 A 25 25 0 0 0 158.76758 426.59375 A 25 25 0 0 0 158.66992 426.56445 A 25 25 0 0 0 150 425 z M 350 425 A 25 25 0 0 0 325 450 A 25 25 0 0 0 326.16992 457.38867 A 25 25 0 0 0 327.19141 459.62695 A 25 25 0 0 0 329.4668 464.0918 A 25 25 0 0 0 331.38672 466.30664 A 25 25 0 0 0 333.62891 468.89453 A 25 25 0 0 0 334.47852 469.39844 A 25 25 0 0 0 339.32422 472.27344 A 25 25 0 0 0 341.75586 473.51172 A 25 25 0 0 0 350 475 A 25 25 0 0 0 357.38281 473.83203 A 25 25 0 0 0 359.64844 472.79688 A 25 25 0 0 0 364.0918 470.5332 A 25 25 0 0 0 366.31445 468.60547 A 25 25 0 0 0 368.89258 466.37109 A 25 25 0 0 0 369.39453 465.52539 A 25 25 0 0 0 372.27539 460.66992 A 25 25 0 0 0 373.51172 458.24414 A 25 25 0 0 0 375 450 A 25 25 0 0 0 350 425 z M 178.72656 495.71875 A 25 25 0 0 0 175.37695 496.01953 A 25 25 0 0 0 161.61133 503.0332 A 25 25 0 0 0 161.61133 538.38867 A 25 25 0 0 0 196.9668 538.38867 A 25 25 0 0 0 196.9668 503.0332 A 25 25 0 0 0 178.72656 495.71875 z M 320.14844 495.71875 A 25 25 0 0 0 316.79883 496.01953 A 25 25 0 0 0 309.35938 498.43555 A 25 25 0 0 0 303.0332 503.0332 A 25 25 0 0 0 298.43555 509.36133 A 25 25 0 0 0 296.01758 516.80078 A 25 25 0 0 0 296.01758 524.62109 A 25 25 0 0 0 303.0332 538.38867 A 25 25 0 0 0 338.38867 538.38867 A 25 25 0 0 0 338.38867 503.0332 A 25 25 0 0 0 320.14844 495.71875 z M 250 525 A 25 25 0 0 0 242.61133 526.16992 A 25 25 0 0 0 240.37305 527.19141 A 25 25 0 0 0 235.9082 529.4668 A 25 25 0 0 0 233.69336 531.38672 A 25 25 0 0 0 231.10547 533.62891 A 25 25 0 0 0 230.60156 534.47852 A 25 25 0 0 0 227.72656 539.32422 A 25 25 0 0 0 226.48828 541.75586 A 25 25 0 0 0 225 550 A 25 25 0 0 0 226.16797 557.38281 A 25 25 0 0 0 227.20312 559.64844 A 25 25 0 0 0 229.4668 564.0918 A 25 25 0 0 0 231.39453 566.31445 A 25 25 0 0 0 233.62891 568.89258 A 25 25 0 0 0 234.47461 569.39453 A 25 25 0 0 0 239.33008 572.27539 A 25 25 0 0 0 241.75586 573.51172 A 25 25 0 0 0 250 575 A 25 25 0 0 0 275 550 A 25 25 0 0 0 250 525 z "/>
</svg>

<svg width="500" height="900" xmlns="http://www.w3.org/2000/svg">
    <path
        d="M500.002 450a50 50 0 0 0-4.953-21.693 50 50 0 0 0-5.957-9.48 50 50 0 0 0-27.965-17.573A50 50 0 0 0 450.002 400a50 50 0 0 0-11.127 1.254 50 50 0 0 0-20.049 9.654 50 50 0 0 0-7.916 7.918 50 50 0 0 0-8.697 17.309 50 50 0 0 0-.96 2.738 50 50 0 0 0 0 .002 50 50 0 0 0-.126 1.125A50 50 0 0 0 400 450a50 50 0 0 0 1.254 11.125 50 50 0 0 0 9.656 20.049 50 50 0 0 0 7.916 7.916 50 50 0 0 0 0 .002A50 50 0 0 0 449.998 500l.004.002a50 50 0 0 0 49.998-50 50 50 0 0 0 0-.002h.002zM300 450a50 50 0 0 0-.314-5.6 50 50 0 0 0-.463-2.027 50 50 0 0 0-2.03-8.887 50 50 0 0 0-11.838-18.841 50 50 0 0 0-8.753-6.98 50 50 0 0 0-.002 0 50 50 0 0 0-10.084-4.858 50 50 0 0 0-8.426-1.924 50 50 0 0 0-2.49-.569 50 50 0 0 0-11.198 0 50 50 0 0 0-2.492.569 50 50 0 0 0-8.424 1.924 50 50 0 0 0-.002 0 50 50 0 0 0-10.084 4.857 50 50 0 0 0-.002 0 50 50 0 0 0-8.752 6.98 50 50 0 0 0-.001 0 50 50 0 0 0 0 .002 50 50 0 0 0-6.98 8.752 50 50 0 0 0 0 .002 50 50 0 0 0-4.858 10.084 50 50 0 0 0 0 .002 50 50 0 0 0-1.924 8.424 50 50 0 0 0-.569 2.49 50 50 0 0 0 0 .002 50 50 0 0 0 0 11.196 50 50 0 0 0 2.493 10.916 50 50 0 0 0 2.517 5.228 50 50 0 0 0 2.34 4.858 50 50 0 0 0 0 .002 50 50 0 0 0 6.98 8.752 50 50 0 0 0 .002.001 50 50 0 0 0 3.038 2.8 50 50 0 0 0 .002 0 50 50 0 0 0 2.537 1.974 50 50 0 0 0 .722.562 50 50 0 0 0 .002 0 50 50 0 0 0 1.62 1.059 50 50 0 0 0 .894.586 50 50 0 0 0 .943.617 50 50 0 0 0 .002 0 50 50 0 0 0 3.633 1.967 50 50 0 0 0 .002 0 50 50 0 0 0 1.152.506 50 50 0 0 0 9.737 3.304 50 50 0 0 0 .808.206 50 50 0 0 0 .002 0 50 50 0 0 0 .772.128 50 50 0 0 0 7.422.893 50 50 0 0 0 .002 0 50 50 0 0 0 4.128 0 50 50 0 0 0 .002 0 50 50 0 0 0 7.514-.908 50 50 0 0 0 .682-.113 50 50 0 0 0 .808-.206 50 50 0 0 0 9.737-3.304 50 50 0 0 0 1.152-.506 50 50 0 0 0 .002 0 50 50 0 0 0 3.633-1.967 50 50 0 0 0 .002 0 50 50 0 0 0 3.457-2.26 50 50 0 0 0 .002-.002 50 50 0 0 0 .722-.562 50 50 0 0 0 2.537-1.975 50 50 0 0 0 .002 0 50 50 0 0 0 3.038-2.799 50 50 0 0 0 .001 0 50 50 0 0 0 0-.001 50 50 0 0 0 6.98-8.752 50 50 0 0 0 0-.002 50 50 0 0 0 4.858-10.084 50 50 0 0 0 0-.002 50 50 0 0 0 2.03-8.887 50 50 0 0 0 .463-2.027 50 50 0 0 0 0-.002A50 50 0 0 0 300 450zm-200 0a50 50 0 0 0-18.826-39.092A50 50 0 0 0 50.002 400l-.004-.002a50 50 0 0 0-49.998 50A50 50 0 0 0 0 450h-.002a50 50 0 0 0 4.953 21.693 50 50 0 0 0 5.957 9.48A50 50 0 0 0 49.998 500a50 50 0 0 0 27.35-8.143 50 50 0 0 0 3.361-2.4 50 50 0 0 0 .002 0 50 50 0 0 0 1.445-1.225 50 50 0 0 0 1.707-1.447A50 50 0 0 0 100 450z" />
    <path
        d="M250 325a25 25 0 0 0-25 25 25 25 0 0 0 25 25 25 25 0 0 0 7.389-1.17 25 25 0 0 0 2.238-1.021 25 25 0 0 0 4.465-2.276 25 25 0 0 0 2.215-1.92 25 25 0 0 0 2.588-2.242 25 25 0 0 0 1.33-1.676 25 25 0 0 0 3.55-6.966 25 25 0 0 0 .002-.008A25 25 0 0 0 275 350a25 25 0 0 0-.977-6.783 25 25 0 0 0-.173-.559 25 25 0 0 0-2.688-5.887 25 25 0 0 0-.271-.449 25 25 0 0 0-4.473-5.16 25 25 0 0 0-.047-.055 25 25 0 0 0-.092-.054 25 25 0 0 0-7.511-4.46 25 25 0 0 0-.098-.029A25 25 0 0 0 250 325zm-71.271 29.295a25 25 0 0 0-3.35.3 25 25 0 0 0-13.768 7.016 25 25 0 0 0 0 35.356 25 25 0 0 0 35.356 0 25 25 0 0 0 0-35.356 25 25 0 0 0-18.238-7.316zm141.421.002a25 25 0 0 0-3.35.3 25 25 0 0 0-13.767 7.014 25 25 0 0 0 0 35.356 25 25 0 0 0 35.356 0 25 25 0 0 0 0-35.356 25 25 0 0 0-18.239-7.314zM150 425a25 25 0 0 0-7.383 1.168 25 25 0 0 0-2.265 1.035 25 25 0 0 0-4.444 2.264 25 25 0 0 0-2.222 1.928 25 25 0 0 0-2.579 2.234 25 25 0 0 0-.502.846 25 25 0 0 0-2.88 4.855 25 25 0 0 0-1.237 2.426A25 25 0 0 0 125 450a25 25 0 0 0 25 25 25 25 0 0 0 25-25 25 25 0 0 0-.18-2.965 25 25 0 0 0-.021-.15 25 25 0 0 0-.508-2.77 25 25 0 0 0-.064-.25 25 25 0 0 0-.817-2.617 25 25 0 0 0-.1-.256 25 25 0 0 0-1.113-2.474 25 25 0 0 0-.142-.272 25 25 0 0 0-1.399-2.31 25 25 0 0 0-.164-.243 25 25 0 0 0-1.68-2.144 25 25 0 0 0-.177-.205 25 25 0 0 0-1.953-1.953 25 25 0 0 0-.166-.153 25 25 0 0 0-.145-.133 25 25 0 0 0-.103-.06 25 25 0 0 0-7.5-4.451 25 25 0 0 0-.098-.03A25 25 0 0 0 150 425zm28.727 70.719a25 25 0 0 0-3.35.3 25 25 0 0 0-13.766 7.014 25 25 0 0 0 0 35.356 25 25 0 0 0 35.356 0 25 25 0 0 0 0-35.356 25 25 0 0 0-18.24-7.314zm141.421 0a25 25 0 0 0-3.35.3 25 25 0 0 0-13.765 7.014 25 25 0 0 0 0 35.356 25 25 0 0 0 35.356 0 25 25 0 0 0 0-35.356 25 25 0 0 0-18.24-7.314zM250 525a25 25 0 0 0-7.389 1.17 25 25 0 0 0-2.238 1.021 25 25 0 0 0-4.465 2.276 25 25 0 0 0-2.215 1.92 25 25 0 0 0-2.588 2.242 25 25 0 0 0-.503.85 25 25 0 0 0-2.875 4.845 25 25 0 0 0-1.239 2.432A25 25 0 0 0 225 550a25 25 0 0 0 1.168 7.383 25 25 0 0 0 1.035 2.265 25 25 0 0 0 2.264 4.444 25 25 0 0 0 1.928 2.222 25 25 0 0 0 2.234 2.579 25 25 0 0 0 .846.502 25 25 0 0 0 4.855 2.88 25 25 0 0 0 2.426 1.237A25 25 0 0 0 250 575a25 25 0 0 0 25-25 25 25 0 0 0-25-25z" />
    <path
        d="M250 325a25 25 0 0 0-25 25 25 25 0 0 0 25 25 25 25 0 0 0 7.389-1.17 25 25 0 0 0 2.238-1.021 25 25 0 0 0 4.465-2.276 25 25 0 0 0 2.215-1.92 25 25 0 0 0 2.588-2.242 25 25 0 0 0 1.33-1.676 25 25 0 0 0 3.55-6.966 25 25 0 0 0 .002-.008A25 25 0 0 0 275 350a25 25 0 0 0-.977-6.783 25 25 0 0 0-.173-.559 25 25 0 0 0-2.688-5.887 25 25 0 0 0-.271-.449 25 25 0 0 0-4.473-5.16 25 25 0 0 0-.047-.055 25 25 0 0 0-.092-.054 25 25 0 0 0-7.511-4.46 25 25 0 0 0-.098-.029A25 25 0 0 0 250 325zm-71.271 29.295a25 25 0 0 0-3.35.3 25 25 0 0 0-13.768 7.016 25 25 0 0 0 0 35.356 25 25 0 0 0 35.356 0 25 25 0 0 0 0-35.356 25 25 0 0 0-18.238-7.316zm141.421.002a25 25 0 0 0-3.35.3 25 25 0 0 0-13.767 7.014 25 25 0 0 0 0 35.356 25 25 0 0 0 35.356 0 25 25 0 0 0 0-35.356 25 25 0 0 0-18.239-7.314zM350 425a25 25 0 0 0-25 25 25 25 0 0 0 1.17 7.389 25 25 0 0 0 1.021 2.238 25 25 0 0 0 2.276 4.465 25 25 0 0 0 1.92 2.215 25 25 0 0 0 2.242 2.588 25 25 0 0 0 .85.503 25 25 0 0 0 4.845 2.875 25 25 0 0 0 2.432 1.239A25 25 0 0 0 350 475a25 25 0 0 0 7.383-1.168 25 25 0 0 0 2.265-1.035 25 25 0 0 0 4.444-2.264 25 25 0 0 0 2.222-1.928 25 25 0 0 0 2.579-2.234 25 25 0 0 0 .502-.846 25 25 0 0 0 2.88-4.855 25 25 0 0 0 1.237-2.426A25 25 0 0 0 375 450a25 25 0 0 0-25-25zm-171.273 70.719a25 25 0 0 0-3.35.3 25 25 0 0 0-13.766 7.014 25 25 0 0 0 0 35.356 25 25 0 0 0 35.356 0 25 25 0 0 0 0-35.356 25 25 0 0 0-18.24-7.314zm141.421 0a25 25 0 0 0-3.35.3 25 25 0 0 0-13.765 7.014 25 25 0 0 0 0 35.356 25 25 0 0 0 35.356 0 25 25 0 0 0 0-35.356 25 25 0 0 0-18.24-7.314zM250 525a25 25 0 0 0-7.389 1.17 25 25 0 0 0-2.238 1.021 25 25 0 0 0-4.465 2.276 25 25 0 0 0-2.215 1.92 25 25 0 0 0-2.588 2.242 25 25 0 0 0-.503.85 25 25 0 0 0-2.875 4.845 25 25 0 0 0-1.239 2.432A25 25 0 0 0 225 550a25 25 0 0 0 1.168 7.383 25 25 0 0 0 1.035 2.265 25 25 0 0 0 2.264 4.444 25 25 0 0 0 1.928 2.222 25 25 0 0 0 2.234 2.579 25 25 0 0 0 .846.502 25 25 0 0 0 4.855 2.88 25 25 0 0 0 2.426 1.237A25 25 0 0 0 250 575a25 25 0 0 0 25-25 25 25 0 0 0-25-25z" />
    <path
        d="M250 325a25 25 0 0 0-25 25 25 25 0 0 0 25 25 25 25 0 0 0 7.389-1.17 25 25 0 0 0 2.238-1.021 25 25 0 0 0 4.465-2.276 25 25 0 0 0 2.215-1.92 25 25 0 0 0 2.588-2.242 25 25 0 0 0 1.33-1.676 25 25 0 0 0 3.55-6.966 25 25 0 0 0 .002-.008A25 25 0 0 0 275 350a25 25 0 0 0-.977-6.783 25 25 0 0 0-.173-.559 25 25 0 0 0-2.688-5.887 25 25 0 0 0-.271-.449 25 25 0 0 0-4.473-5.16 25 25 0 0 0-.047-.055 25 25 0 0 0-.092-.054 25 25 0 0 0-7.511-4.46 25 25 0 0 0-.098-.029A25 25 0 0 0 250 325zm-71.271 29.295a25 25 0 0 0-3.35.3 25 25 0 0 0-13.768 7.016 25 25 0 0 0 0 35.356 25 25 0 0 0 35.356 0 25 25 0 0 0 0-35.356 25 25 0 0 0-18.238-7.316zm141.421.002a25 25 0 0 0-3.35.3 25 25 0 0 0-13.767 7.014 25 25 0 0 0-4.597 6.328 25 25 0 0 0 4.597 29.028 25 25 0 0 0 13.768 7.015 25 25 0 0 0 21.588-7.015 25 25 0 0 0 0-35.356 25 25 0 0 0-18.239-7.314zM178.727 495.719a25 25 0 0 0-3.35.3 25 25 0 0 0-13.766 7.014 25 25 0 0 0 0 35.356 25 25 0 0 0 35.356 0 25 25 0 0 0 0-35.356 25 25 0 0 0-18.24-7.314zm141.421 0a25 25 0 0 0-3.35.3 25 25 0 0 0-7.439 2.417 25 25 0 0 0-6.326 4.597 25 25 0 0 0-7.015 21.588 25 25 0 0 0 7.015 13.768 25 25 0 0 0 35.356 0 25 25 0 0 0 0-35.356 25 25 0 0 0-18.24-7.314zM250 525a25 25 0 0 0-7.389 1.17 25 25 0 0 0-2.238 1.021 25 25 0 0 0-4.465 2.276 25 25 0 0 0-2.215 1.92 25 25 0 0 0-2.588 2.242 25 25 0 0 0-.503.85 25 25 0 0 0-2.875 4.845 25 25 0 0 0-1.239 2.432A25 25 0 0 0 225 550a25 25 0 0 0 1.168 7.383 25 25 0 0 0 1.035 2.265 25 25 0 0 0 2.264 4.444 25 25 0 0 0 1.928 2.222 25 25 0 0 0 2.234 2.579 25 25 0 0 0 .846.502 25 25 0 0 0 4.855 2.88 25 25 0 0 0 2.426 1.237A25 25 0 0 0 250 575a25 25 0 0 0 25-25 25 25 0 0 0-25-25z" />
</svg>
